X:1637
T:Blue Pacific Hornpipe
C:Ward Allen
R:Hornpipe
M:2/4
L:1/16
K:D
FG|AFDF Acde|fdBd A2FA|BAGB A2FA|GFEF G2FG|
AFDF Acde|fdBd A2FA|GFEF GABc|d2ec d2:|
|:de|fdce dAFB|AFBF A2ED|CDEF GABc|dAFD E2de|
fdce dAFB|AFBF AFD2|gefd edce|d2dc d2:|


